static/images/slide-profits/2.svg

<svg width="80" height="100" viewBox="0 0 80 100" version="1.1" xmlns="http://www.w3.org/2000/svg" xmlns:xlink="http://www.w3.org/1999/xlink">
<title>Shape</title>
<desc>Created using Figma</desc>
<g id="Canvas" transform="translate(-10292 -1307)">
<g id="Shape">
<use xlink:href="#path0_fill" transform="translate(10292 1307)" fill="#F4511E"/>
</g>
</g>
<defs>
<path id="path0_fill" fill-rule="evenodd" d="M 70.3799 67.5494L 77.6611 67.5494C 78.9424 67.5494 79.9805 68.5889 79.9805 69.8713C 79.9805 71.1537 78.9414 72.1931 77.6611 72.1931L 73.0576 72.1931L 74.2734 74.3C 77.7148 80.2672 76.2275 87.7478 71.0898 91.9983L 73.6953 96.5168C 74.3359 97.6273 73.9561 99.0475 72.8467 99.6885C 72.4814 99.8994 72.082 99.9998 71.6895 99.9998C 70.8867 99.9998 70.1074 99.5836 69.6777 98.8386L 66.0098 92.4802L 54.3086 72.1931L 25.6719 72.1931L 13.9707 92.4789L 10.3027 98.8386C 9.87305 99.5836 9.09375 99.9998 8.29199 99.9998C 7.89844 99.9998 7.49902 99.8998 7.13379 99.6885C 6.02441 99.0475 5.64453 97.6273 6.28516 96.5168L 8.89258 91.9971C 3.75293 87.7468 2.2666 80.2659 5.70801 74.2986L 6.92285 72.1931L 2.31934 72.1931C 1.03809 72.1931 0 71.1537 0 69.8713C 0 68.5889 1.03809 67.5494 2.31934 67.5494L 9.60059 67.5494L 26.8408 37.6609C 25.8682 35.6998 25.3184 33.4929 25.3184 31.1594C 25.3184 25.5342 28.498 20.6406 33.1504 18.177L 33.1504 2.3219C 33.1504 1.03943 34.1885 0 35.4697 0L 44.498 0C 45.7793 0 46.8174 1.03943 46.8174 2.3219L 46.8174 18.1765C 51.4707 20.6403 54.6494 25.5338 54.6494 31.1589C 54.6494 33.488 54.1016 35.6907 53.1328 37.6488L 70.3799 67.5494ZM 42.1787 4.6438L 37.7891 4.6438L 37.7891 16.6448C 37.9248 16.6243 38.0615 16.6056 38.1982 16.5889C 38.417 16.5621 38.6367 16.5402 38.8584 16.5232C 39.2305 16.4946 39.6055 16.48 39.9834 16.48C 40.3877 16.48 40.7891 16.4967 41.1855 16.5292C 41.5195 16.5566 41.8506 16.5953 42.1787 16.6448L 42.1787 4.6438ZM 39.9834 21.1234C 45.5117 21.1234 50.0098 25.6256 50.0098 31.1592C 50.0098 36.5378 45.7598 40.9408 40.4443 41.183L 40.3916 41.1833L 40.3115 41.1865L 40.2412 41.189C 40.1553 41.192 40.0693 41.1949 39.9834 41.1949C 39.9219 41.1949 39.8613 41.1929 39.8008 41.1908L 39.792 41.1904L 39.7041 41.1876C 39.6367 41.183 39.5684 41.1813 39.501 41.1826C 34.1963 40.9297 29.958 36.531 29.958 31.1593C 29.958 25.6256 34.4551 21.1234 39.9834 21.1234ZM 8.79883 83.6677C 9.23438 85.2972 10.085 86.7446 11.2578 87.8943L 35.8584 45.2432C 33.5723 44.5708 31.5166 43.3556 29.8408 41.7458L 9.72559 76.6202C 8.48633 78.7687 8.15723 81.2715 8.79883 83.6677ZM 28.3506 67.5494L 39.9912 47.3684L 51.6309 67.5494L 28.3506 67.5494ZM 44.1191 45.24L 68.7207 87.8931C 71.667 84.9974 72.4131 80.3627 70.2549 76.6218L 50.1348 41.738C 48.459 43.3491 46.4053 44.5662 44.1191 45.24Z"/>
</defs>
</svg>

<svg xmlns="http://www.w3.org/2000/svg" xmlns:xlink="http://www.w3.org/1999/xlink" width="80" height="100"><use xlink:href="#A" fill="#F4511E" x="10292" y="1307" transform="translate(-10292 -1307)"/><defs><path id="A" d="M70.38 67.55h7.28a2.32 2.32 0 1 1 0 4.644h-4.604l1.216 2.107c3.44 5.967 1.954 13.448-3.184 17.698l2.606 4.52c.64 1.11.26 2.53-.85 3.172a2.31 2.31 0 0 1-1.157.311c-.803 0-1.582-.416-2.012-1.16L54.31 72.193H25.672L10.303 98.84c-.43.745-1.21 1.16-2.01 1.16-.394 0-.793-.1-1.158-.31-1.11-.64-1.49-2.06-.85-3.172l2.607-4.52c-5.14-4.25-6.626-11.73-3.185-17.7l1.215-2.105H2.32a2.32 2.32 0 1 1 0-4.644h7.28l17.24-29.89c-.973-1.96-1.522-4.168-1.522-6.5 0-5.625 3.18-10.52 7.832-12.982V2.322A2.32 2.32 0 0 1 35.47 0h9.028a2.32 2.32 0 0 1 2.319 2.322v15.855c4.653 2.464 7.832 7.357 7.832 12.982 0 2.33-.548 4.532-1.517 6.5l17.247 29.9zM42.18 4.644h-4.4v12l.41-.056c.22-.027.438-.05.66-.066.372-.03.747-.043 1.125-.043a14.72 14.72 0 0 1 1.202.049 14.73 14.73 0 0 1 .993.116v-12zm-2.195 16.48C45.512 21.123 50 25.626 50 31.16c0 5.38-4.25 9.782-9.565 10.024h-.053l-.08.003-.07.002-.258.006a5.24 5.24 0 0 1-.183-.004h-.01l-.088-.003c-.067-.005-.136-.006-.203-.005-5.305-.253-9.543-4.652-9.543-10.023 0-5.534 4.497-10.036 10.025-10.036zM8.8 83.668c.436 1.63 1.286 3.077 2.46 4.227l24.6-42.65c-2.286-.672-4.342-1.888-6.018-3.497L9.726 76.62c-1.24 2.148-1.568 4.65-.927 7.047zM28.35 67.55l11.64-20.18 11.64 20.18H28.35zm15.77-22.31L68.72 87.893a9.31 9.31 0 0 0 1.534-11.271l-20.12-34.884c-1.676 1.61-3.73 2.828-6.016 3.502z" fill-rule="evenodd"/></defs></svg>
